assets/i18n/b-pl-dk.svg

<?xml version="1.0" encoding="UTF-8"?>
<svg width="209px" height="24px" viewBox="0 0 209 24" version="1.1" xmlns="http://www.w3.org/2000/svg" xmlns:xlink="http://www.w3.org/1999/xlink">
    <!-- Generator: Sketch 51.3 (57544) - http://www.bohemiancoding.com/sketch -->
    <title>SwG-PL Copy-Black</title>
    <desc>Created with Sketch.</desc>
    <defs></defs>
    <g id="SwG-PL-Copy" stroke="none" stroke-width="1" fill="none" fill-rule="evenodd">
        <path d="M5.302,18.368 C4.10599402,18.368 2.93683905,17.9770039 1.7945,17.195 C0.652160955,16.4129961 -0.09533157,15.3166737 -0.448,13.906 L1.484,13.124 C1.71400115,14.0286712 2.18549644,14.7914969 2.8985,15.4125 C3.61150357,16.0335031 4.41266222,16.344 5.302,16.344 C6.2220046,16.344 7.00783007,16.1025024 7.6595,15.6195 C8.31116992,15.1364976 8.637,14.4810041 8.637,13.653 C8.637,12.7329954 8.31116992,12.0238358 7.6595,11.5255 C7.00783007,11.0271642 5.97667372,10.5633355 4.566,10.134 C3.10932605,9.6739977 2.00533709,9.07983698 1.254,8.3515 C0.50266291,7.62316303 0.127,6.69167234 0.127,5.557 C0.127,4.37632743 0.59466199,3.34900437 1.53,2.475 C2.46533801,1.60099563 3.68432582,1.164 5.187,1.164 C6.58234031,1.164 7.71699563,1.51282984 8.591,2.2105 C9.46500437,2.90817015 10.032332,3.67099586 10.293,4.499 L8.361,5.304 C8.22299931,4.78266406 7.88183606,4.29966889 7.3375,3.855 C6.79316394,3.41033111 6.09167096,3.188 5.233,3.188 C4.42032927,3.188 3.72650287,3.41416441 3.1515,3.8665 C2.57649712,4.3188356 2.289,4.88232996 2.289,5.557 C2.289,6.1703364 2.55349735,6.68783123 3.0825,7.1095 C3.61150265,7.53116878 4.38966153,7.91066498 5.417,8.248 C6.22967073,8.50866797 6.90816395,8.76166544 7.4525,9.007 C7.99683605,9.25233456 8.54883054,9.57816464 9.1085,9.9845 C9.66816947,10.3908354 10.0898319,10.8968303 10.3735,11.5025 C10.6571681,12.1081697 10.799,12.8096627 10.799,13.607 C10.799,14.4043373 10.6341683,15.1173302 10.3045,15.746 C9.97483168,16.3746698 9.53783605,16.8729982 8.9935,17.241 C8.44916394,17.6090018 7.86266981,17.8888324 7.234,18.0805 C6.60533019,18.2721676 5.96133663,18.368 5.302,18.368 Z M22.69575,18 L20.67175,18 L20.67175,16.436 L20.57975,16.436 C20.2577484,16.9726693 19.7670866,17.4288315 19.10775,17.8045 C18.4484134,18.1801685 17.7507537,18.368 17.01475,18.368 C15.6040763,18.368 14.534587,17.938671 13.80625,17.08 C13.077913,16.221329 12.71375,15.0713405 12.71375,13.63 L12.71375,6.73 L14.82975,6.73 L14.82975,13.285 C14.82975,15.3856772 15.7574074,16.436 17.61275,16.436 C18.4867544,16.436 19.1997472,16.0833369 19.75175,15.378 C20.3037528,14.6726631 20.57975,13.8600046 20.57975,12.94 L20.57975,6.73 L22.69575,6.73 L22.69575,18 Z M31.3725,18.368 C30.513829,18.368 29.7433367,18.1840018 29.061,17.816 C28.3786633,17.4479982 27.868835,16.9880028 27.5315,16.436 L27.4395,16.436 L27.4395,18 L25.4155,18 L25.4155,1.532 L27.5315,1.532 L27.5315,6.73 L27.4395,8.294 L27.5315,8.294 C27.868835,7.74199724 28.3786633,7.28200184 29.061,6.914 C29.7433367,6.54599816 30.513829,6.362 31.3725,6.362 C32.8291739,6.362 34.0864947,6.93699425 35.1445,8.087 C36.2025053,9.23700575 36.7315,10.6629915 36.7315,12.365 C36.7315,14.0670085 36.2025053,15.4929942 35.1445,16.643 C34.0864947,17.7930057 32.8291739,18.368 31.3725,18.368 Z M31.0275,16.436 C32.0088382,16.436 32.8521631,16.0641704 33.5575,15.3205 C34.2628369,14.5768296 34.6155,13.5916728 34.6155,12.365 C34.6155,11.1383272 34.2628369,10.1531704 33.5575,9.4095 C32.8521631,8.66582961 32.0088382,8.294 31.0275,8.294 C30.0308283,8.294 29.1836702,8.66199632 28.486,9.398 C27.7883298,10.1340037 27.4395,11.1229938 27.4395,12.365 C27.4395,13.6070062 27.7883298,14.5959963 28.486,15.332 C29.1836702,16.0680037 30.0308283,16.436 31.0275,16.436 Z M42.87825,18.368 C41.6209104,18.368 40.5820874,18.0613364 39.76175,17.448 C38.9414126,16.8346636 38.3395852,16.0680046 37.95625,15.148 L39.84225,14.366 C40.440253,15.7766737 41.4599095,16.482 42.90125,16.482 C43.5605866,16.482 44.1010812,16.3363348 44.52275,16.045 C44.9444188,15.7536652 45.15525,15.3703357 45.15525,14.895 C45.15525,14.1589963 44.6415885,13.660668 43.61425,13.4 L41.33725,12.848 C40.6165797,12.6639991 39.9342532,12.3151692 39.29025,11.8015 C38.6462468,11.2878308 38.32425,10.5940044 38.32425,9.72 C38.32425,8.72332835 38.7650789,7.91450311 39.64675,7.2935 C40.5284211,6.6724969 41.5749106,6.362 42.78625,6.362 C43.7829216,6.362 44.6722461,6.58816441 45.45425,7.0405 C46.2362539,7.4928356 46.795915,8.14066245 47.13325,8.984 L45.29325,9.743 C44.8792479,8.74632835 44.0205899,8.248 42.71725,8.248 C42.0885802,8.248 41.5595855,8.37833203 41.13025,8.639 C40.7009145,8.89966797 40.48625,9.25233111 40.48625,9.697 C40.48625,10.3410032 40.9845783,10.7779988 41.98125,11.008 L44.21225,11.537 C45.2702553,11.7823346 46.0522475,12.203997 46.55825,12.802 C47.0642525,13.400003 47.31725,14.0746629 47.31725,14.826 C47.31725,15.8380051 46.9032541,16.68133 46.07525,17.356 C45.2472459,18.03067 44.1815899,18.368 42.87825,18.368 Z M51.417,1.532 L51.417,11.675 L56.293,6.73 L59.007,6.73 L59.007,6.822 L54.614,11.215 L59.214,17.908 L59.214,18 L56.661,18 L53.119,12.687 L51.417,14.389 L51.417,18 L49.301,18 L49.301,1.532 L51.417,1.532 Z M62.66975,18 L60.55375,18 L60.55375,6.73 L62.57775,6.73 L62.57775,8.57 L62.66975,8.57 C62.8844177,7.9566636 63.3252467,7.45066866 63.99225,7.052 C64.6592533,6.65333134 65.3070802,6.454 65.93575,6.454 C66.5644198,6.454 67.0934145,6.54599908 67.52275,6.73 L66.71775,8.708 C66.4417486,8.60066613 66.0660857,8.547 65.59075,8.547 C64.8240795,8.547 64.1455863,8.84983031 63.55525,9.4555 C62.9649137,10.0611697 62.66975,10.8546618 62.66975,11.836 L62.66975,18 Z M72.2895,22.968 L70.1045,22.968 L72.7265,17.287 L68.0805,6.73 L70.3805,6.73 L73.7385,14.826 L73.7845,14.826 L77.0505,6.73 L79.3505,6.73 L72.2895,22.968 Z M86.60125,18.368 C85.742579,18.368 84.9720867,18.1840018 84.28975,17.816 C83.6074133,17.4479982 83.097585,16.9880028 82.76025,16.436 L82.66825,16.436 L82.66825,18 L80.64425,18 L80.64425,1.532 L82.76025,1.532 L82.76025,6.73 L82.66825,8.294 L82.76025,8.294 C83.097585,7.74199724 83.6074133,7.28200184 84.28975,6.914 C84.9720867,6.54599816 85.742579,6.362 86.60125,6.362 C88.057924,6.362 89.3152447,6.93699425 90.37325,8.087 C91.4312553,9.23700575 91.96025,10.6629915 91.96025,12.365 C91.96025,14.0670085 91.4312553,15.4929942 90.37325,16.643 C89.3152447,17.7930057 88.057924,18.368 86.60125,18.368 Z M86.25625,16.436 C87.2375882,16.436 88.0809131,16.0641704 88.78625,15.3205 C89.4915869,14.5768296 89.84425,13.5916728 89.84425,12.365 C89.84425,11.1383272 89.4915869,10.1531704 88.78625,9.4095 C88.0809131,8.66582961 87.2375882,8.294 86.25625,8.294 C85.2595784,8.294 84.4124202,8.66199632 83.71475,9.398 C83.0170798,10.1340037 82.66825,11.1229938 82.66825,12.365 C82.66825,13.6070062 83.0170798,14.5959963 83.71475,15.332 C84.4124202,16.0680037 85.2595784,16.436 86.25625,16.436 Z M103.811,18 L101.787,18 L101.787,16.436 L101.695,16.436 C101.372998,16.9726693 100.882337,17.4288315 100.223,17.8045 C99.5636634,18.1801685 98.8660037,18.368 98.13,18.368 C96.7193263,18.368 95.649837,17.938671 94.9215,17.08 C94.193163,16.221329 93.829,15.0713405 93.829,13.63 L93.829,6.73 L95.945,6.73 L95.945,13.285 C95.945,15.3856772 96.8726574,16.436 98.728,16.436 C99.6020044,16.436 100.314997,16.0833369 100.867,15.378 C101.419003,14.6726631 101.695,13.8600046 101.695,12.94 L101.695,6.73 L103.811,6.73 L103.811,18 Z M108.83075,3.901 C108.539415,4.19233479 108.186752,4.338 107.77275,4.338 C107.358748,4.338 107.006085,4.19233479 106.71475,3.901 C106.423415,3.60966521 106.27775,3.25700207 106.27775,2.843 C106.27775,2.42899793 106.423415,2.07633479 106.71475,1.785 C107.006085,1.49366521 107.358748,1.348 107.77275,1.348 C108.186752,1.348 108.539415,1.49366521 108.83075,1.785 C109.122085,2.07633479 109.26775,2.42899793 109.26775,2.843 C109.26775,3.25700207 109.122085,3.60966521 108.83075,3.901 Z M105.44975,23.198 C105.035748,23.198 104.621752,23.1213341 104.20775,22.968 L104.75975,21.128 C104.959084,21.2200005 105.166082,21.266 105.38075,21.266 C106.270088,21.266 106.71475,20.6833392 106.71475,19.518 L106.71475,6.73 L108.83075,6.73 L108.83075,19.518 C108.83075,20.7600062 108.531753,21.6838303 107.93375,22.2895 C107.335747,22.8951697 106.507755,23.198 105.44975,23.198 Z M116.38625,18 L116.38625,16.16 L122.80325,8.662 L116.57025,8.662 L116.57025,6.73 L125.40225,6.73 L125.40225,8.57 L118.98525,16.068 L125.49425,16.068 L125.49425,18 L116.38625,18 Z" id="Subskrybuj-z" fill="#FFFFFF"></path>
        <g id="Group" transform="translate(134.000000, 0.000000)" fill="#FFFFFF" fill-rule="nonzero">
            <path d="M9.36714443,19 C4.27673649,19 0,14.7346939 0,9.5 C0,4.26530612 4.27673649,0 9.36714443,0 C12.185226,0 14.1896362,1.13265306 15.6979052,2.62244898 L13.92172,4.44897959 C12.8401323,3.40816327 11.3715546,2.59183673 9.36714443,2.59183673 C5.646086,2.59183673 2.73869901,5.67346939 2.73869901,9.5 C2.73869901,13.3265306 5.646086,16.4081633 9.36714443,16.4081633 C11.7783903,16.4081633 13.1477398,15.4081633 14.030871,14.5102041 C14.755237,13.7653061 15.2216097,12.7040816 15.4002205,11.244898 L9.36714443,11.244898 L9.36714443,8.64285714 L17.8610805,8.64285714 C17.9503859,9.10204082 18,9.66326531 18,10.2653061 C18,12.2142857 17.4840132,14.622449 15.8169791,16.3367347 C14.1896362,18.0714286 12.1256891,19 9.36714443,19 Z" id="Shape"></path>
            <path d="M32,13 C32,16.4557596 29.3096447,19 26,19 C22.6903553,19 20,16.4557596 20,13 C20,9.52420701 22.6903553,7 26,7 C29.3096447,7 32,9.52420701 32,13 Z M29.3705584,13 C29.3705584,10.836394 27.8071066,9.3639399 26,9.3639399 C24.1928934,9.3639399 22.6294416,10.8464107 22.6294416,13 C22.6294416,15.1335559 24.1928934,16.6360601 26,16.6360601 C27.8071066,16.6360601 29.3705584,15.1435726 29.3705584,13 Z" id="Shape"></path>
            <path d="M45,13 C45,16.4557596 42.3096447,19 39,19 C35.7005076,19 33,16.4557596 33,13 C33,9.52420701 35.6903553,7 39,7 C42.3096447,7 45,9.52420701 45,13 Z M42.3807107,13 C42.3807107,10.836394 40.8172589,9.3639399 39.0101523,9.3639399 C37.2030457,9.3639399 35.6395939,10.8464107 35.6395939,13 C35.6395939,15.1335559 37.2030457,16.6360601 39.0101523,16.6360601 C40.8172589,16.6460768 42.3807107,15.1435726 42.3807107,13 Z" id="Shape"></path>
            <path d="M57,7.3621186 L57,17.8929188 C57,22.228555 54.5013055,24 51.5430809,24 C48.7571802,24 47.0913838,22.0915371 46.45953,20.5354059 L48.6518712,19.6056419 C49.0443864,20.5647668 50.0017406,21.6902706 51.5430809,21.6902706 C53.4386423,21.6902706 54.6066144,20.4864709 54.6066144,18.2452504 L54.6066144,17.4035694 L54.5204526,17.4035694 C53.9556136,18.1180196 52.8642298,18.7345999 51.4952132,18.7345999 C48.6231506,18.7345999 46,16.1801957 46,12.8917674 C46,9.58376511 48.6327241,7 51.4952132,7 C52.8642298,7 53.9556136,7.6263673 54.5204526,8.31145653 L54.6066144,8.31145653 L54.6066144,7.3621186 L57,7.3621186 Z M54.7789382,12.9015544 C54.7789382,10.8364997 53.4290688,9.31951641 51.7154047,9.31951641 C49.97302,9.31951641 48.5178416,10.8267127 48.5178416,12.9015544 C48.5178416,14.9470351 49.97302,16.4346575 51.7154047,16.4346575 C53.4290688,16.4346575 54.7789382,14.9470351 54.7789382,12.9015544 Z" id="Shape"></path>
            <polygon id="Shape" points="63 1 63 19 60 19 60 1"></polygon>
            <path d="M72.8441203,14.9732888 L74.8896992,16.3355593 C74.2278943,17.3171953 72.633546,19 69.8760255,19 C66.4567001,19 64,16.3656093 64,13 C64,9.43405676 66.4867821,7 69.5852325,7 C72.7037375,7 74.2278943,9.47412354 74.7292616,10.8163606 L75,11.4974958 L66.9680948,14.8230384 C67.579763,16.0250417 68.5423883,16.6460768 69.8860529,16.6460768 C71.2297174,16.6460768 72.1622607,15.9749583 72.8441203,14.9732888 Z M66.5369189,12.8096828 L71.911577,10.5859766 C71.6107566,9.83472454 70.72835,9.31385643 69.6754786,9.31385643 C68.331814,9.31385643 66.4667274,10.4958264 66.5369189,12.8096828 Z" id="Shape"></path>
        </g>
    </g>
</svg>

<svg width="209" height="24" viewBox="0 0 209 24" xmlns="http://www.w3.org/2000/svg"><title>SwG-PL-Black</title><desc>Created with Sketch.</desc><g fill="none"><path d="M5.302 18.368c-1.196 0-2.365-.391-3.507-1.173s-1.89-1.878-2.243-3.289l1.932-.782c.23.905.701 1.667 1.414 2.288.713.621 1.514.932 2.403.932.92 0 1.706-.241 2.358-.725.652-.483.978-1.138.978-1.966 0-.92-.326-1.629-.978-2.128-.652-.498-1.683-.962-3.094-1.391-1.457-.46-2.561-1.054-3.312-1.783-.751-.728-1.127-1.66-1.127-2.794 0-1.181.468-2.208 1.403-3.082.935-.874 2.154-1.311 3.657-1.311 1.395 0 2.53.349 3.404 1.047.874.698 1.441 1.46 1.702 2.288l-1.932.805c-.138-.521-.479-1.004-1.024-1.449-.544-.445-1.246-.667-2.105-.667-.813 0-1.506.226-2.081.678-.575.452-.862 1.016-.862 1.691 0 .613.264 1.131.793 1.552.529.422 1.307.801 2.334 1.138.813.261 1.491.514 2.035.759s1.096.571 1.656.978c.56.406.981.912 1.265 1.518.284.606.425 1.307.425 2.104 0 .797-.165 1.51-.494 2.139-.33.629-.767 1.127-1.311 1.495-.544.368-1.131.648-1.759.84-.629.192-1.273.287-1.932.287zm17.394-.368h-2.024v-1.564h-.092c-.322.537-.813.993-1.472 1.369s-1.357.563-2.093.563c-1.411 0-2.48-.429-3.208-1.288-.728-.859-1.093-2.009-1.093-3.45v-6.9h2.116v6.555c0 2.101.928 3.151 2.783 3.151.874 0 1.587-.353 2.139-1.058.552-.705.828-1.518.828-2.438v-6.21h2.116v11.27zm8.677.368c-.859 0-1.629-.184-2.311-.552-.682-.368-1.192-.828-1.529-1.38h-.092v1.564h-2.024v-16.468h2.116v5.198l-.092 1.564h.092c.337-.552.847-1.012 1.529-1.38.682-.368 1.453-.552 2.311-.552 1.457 0 2.714.575 3.772 1.725 1.058 1.15 1.587 2.576 1.587 4.278 0 1.702-.529 3.128-1.587 4.278-1.058 1.15-2.315 1.725-3.772 1.725zm-.345-1.932c.981 0 1.825-.372 2.53-1.116.705-.744 1.058-1.729 1.058-2.955 0-1.227-.353-2.212-1.058-2.956-.705-.744-1.549-1.115-2.53-1.115-.997 0-1.844.368-2.541 1.104-.698.736-1.047 1.725-1.047 2.967s.349 2.231 1.047 2.967c.698.736 1.545 1.104 2.541 1.104zm11.851 1.932c-1.257 0-2.296-.307-3.117-.92-.82-.613-1.422-1.38-1.806-2.3l1.886-.782c.598 1.411 1.618 2.116 3.059 2.116.659 0 1.2-.146 1.622-.437.422-.291.633-.675.633-1.15 0-.736-.514-1.234-1.541-1.495l-2.277-.552c-.721-.184-1.403-.533-2.047-1.046-.644-.514-.966-1.207-.966-2.082 0-.997.441-1.805 1.322-2.427.882-.621 1.928-.931 3.14-.931.997 0 1.886.226 2.668.678.782.452 1.342 1.1 1.679 1.944l-1.84.759c-.414-.997-1.273-1.495-2.576-1.495-.629 0-1.158.13-1.587.391-.429.261-.644.613-.644 1.058 0 .644.498 1.081 1.495 1.311l2.231.529c1.058.245 1.84.667 2.346 1.265.506.598.759 1.273.759 2.024 0 1.012-.414 1.855-1.242 2.53-.828.675-1.894 1.012-3.197 1.012zm8.539-16.836v10.143l4.876-4.945h2.714v.092l-4.393 4.393 4.6 6.693v.092h-2.553l-3.542-5.313-1.702 1.702v3.611h-2.116v-16.468h2.116zm11.253 16.468h-2.116v-11.27h2.024v1.84h.092c.215-.613.655-1.119 1.322-1.518s1.315-.598 1.944-.598 1.158.092 1.587.276l-.805 1.978c-.276-.107-.652-.161-1.127-.161-.767 0-1.445.303-2.035.909-.59.606-.886 1.399-.886 2.38v6.164zm9.62 4.968h-2.185l2.622-5.681-4.646-10.557h2.3l3.358 8.096h.046l3.266-8.096h2.3l-7.061 16.238zm14.312-4.6c-.859 0-1.629-.184-2.311-.552-.682-.368-1.192-.828-1.529-1.38h-.092v1.564h-2.024v-16.468h2.116v5.198l-.092 1.564h.092c.337-.552.847-1.012 1.529-1.38.682-.368 1.453-.552 2.311-.552 1.457 0 2.714.575 3.772 1.725 1.058 1.15 1.587 2.576 1.587 4.278 0 1.702-.529 3.128-1.587 4.278-1.058 1.15-2.315 1.725-3.772 1.725zm-.345-1.932c.981 0 1.825-.372 2.53-1.116.705-.744 1.058-1.729 1.058-2.955 0-1.227-.353-2.212-1.058-2.956-.705-.744-1.549-1.115-2.53-1.115-.997 0-1.844.368-2.541 1.104-.698.736-1.046 1.725-1.046 2.967s.349 2.231 1.046 2.967c.698.736 1.545 1.104 2.541 1.104zm17.555 1.564h-2.024v-1.564h-.092c-.322.537-.813.993-1.472 1.369s-1.357.563-2.093.563c-1.411 0-2.48-.429-3.209-1.288-.728-.859-1.093-2.009-1.093-3.45v-6.9h2.116v6.555c0 2.101.928 3.151 2.783 3.151.874 0 1.587-.353 2.139-1.058.552-.705.828-1.518.828-2.438v-6.21h2.116v11.27zm5.02-14.099c-.291.291-.644.437-1.058.437-.414 0-.767-.146-1.058-.437-.291-.291-.437-.644-.437-1.058 0-.414.146-.767.437-1.058.291-.291.644-.437 1.058-.437.414 0 .767.146 1.058.437.291.291.437.644.437 1.058 0 .414-.146.767-.437 1.058zm-3.381 19.297c-.414 0-.828-.077-1.242-.23l.552-1.84c.199.092.406.138.621.138.889 0 1.334-.583 1.334-1.748v-12.788h2.116v12.788c0 1.242-.299 2.166-.897 2.771-.598.606-1.426.909-2.484.909zm10.937-5.198v-1.84l6.417-7.498h-6.233v-1.932h8.832v1.84l-6.417 7.498h6.509v1.932h-9.108z" fill="#fff"/><g fill-rule="nonzero"><path d="M143.367 19c-5.09 0-9.367-4.265-9.367-9.5s4.277-9.5 9.367-9.5c2.818 0 4.822 1.133 6.331 2.622l-1.776 1.827c-1.082-1.041-2.55-1.857-4.555-1.857-3.721 0-6.628 3.082-6.628 6.908 0 3.827 2.907 6.908 6.628 6.908 2.411 0 3.781-1 4.664-1.898.724-.745 1.191-1.806 1.369-3.265h-6.033v-2.602h8.494c.089.459.139 1.02.139 1.622 0 1.949-.516 4.357-2.183 6.071-1.627 1.735-3.691 2.663-6.45 2.663z" id="Shape" fill="#4285F4"/><path d="M166 13c0 3.456-2.69 6-6 6s-6-2.544-6-6c0-3.476 2.69-6 6-6s6 2.524 6 6zm-2.629 0c0-2.164-1.563-3.636-3.371-3.636-1.807 0-3.371 1.482-3.371 3.636 0 2.134 1.563 3.636 3.371 3.636 1.807 0 3.371-1.492 3.371-3.636z" id="Shape" fill="#E94235"/><path d="M179 13c0 3.456-2.69 6-6 6-3.299 0-6-2.544-6-6 0-3.476 2.69-6 6-6s6 2.524 6 6zm-2.619 0c0-2.164-1.563-3.636-3.371-3.636-1.807 0-3.371 1.482-3.371 3.636 0 2.134 1.563 3.636 3.371 3.636 1.807.01 3.371-1.492 3.371-3.636z" id="Shape" fill="#FABB05"/><path d="M191 7.362v10.531c0 4.336-2.499 6.107-5.457 6.107-2.786 0-4.452-1.908-5.084-3.465l2.192-.93c.393.959 1.35 2.085 2.891 2.085 1.896 0 3.064-1.204 3.064-3.445v-.842h-.086c-.565.714-1.656 1.331-3.025 1.331-2.872 0-5.495-2.554-5.495-5.843 0-3.308 2.633-5.892 5.495-5.892 1.369 0 2.46.626 3.025 1.311h.086v-.949h2.393zm-2.221 5.539c0-2.065-1.35-3.582-3.064-3.582-1.742 0-3.198 1.507-3.198 3.582 0 2.045 1.455 3.533 3.198 3.533 1.714 0 3.064-1.488 3.064-3.533z" id="Shape" fill="#4285F4"/><path id="Shape" fill="#34A853" d="M197 1v18h-3v-18z"/><path d="M206.844 14.973l2.046 1.362c-.662.982-2.256 2.664-5.014 2.664-3.419 0-5.876-2.634-5.876-6 0-3.566 2.487-6 5.585-6 3.119 0 4.643 2.474 5.144 3.816l.271.681-8.032 3.326c.612 1.202 1.574 1.823 2.918 1.823s2.276-.671 2.958-1.673zm-6.307-2.164l5.375-2.224c-.301-.751-1.183-1.272-2.236-1.272-1.344 0-3.209 1.182-3.139 3.496z" fill="#E94235"/></g></g></svg>
